!!!OTL: 166. Liebe Anna, folge mir!
!!!ARE: Europa, Mitteleuropa, Deutschland, Oberdiebach am Rhein
!!!SCT: K2166
!!!TXL: @@DE
!!!YEM: Copyright 1995, estate of Helmut Schaffrath.
**kern	**text
*clefG2	*
*M2/4	*
*k[f#]	*
*G:	*
=1	=1
{8dd	Drei-
8dd	-mal
8ee	um
8ee	das
=2	=2
4dd	Käſt-
8b}	-chen,
{8g	ich
=3	=3
8dd	weiß
8dd	nicht,
8dd	was
8dd	da
=4	=4
4gg	flog.
8r}	.
{8g	Da
=5	=5
8dd	flog
8dd	ein
8ee	klei-
8ee	-ner
=6	=6
4dd	Vo-
4dd}	-gel,
=7	=7
{4dd	der
4dd	ſprach
=8	=8
4gg	ſo
8r}	.
{8g	Ach,
=9	=9
8dd	lie-
8dd	-be
8a	An-
8ee	-na,
=10	=10
8dd	fol-
8dd	-ge
8b}	mir
{8g	und
=11	=11
8dd	faſ-
8dd	-ſe
8dd	mich
8g	am
=12	=12
4dd	Schleier,
8dd}	.
{8g	und
=13	=13
8dd	wenn
8dd	der
[16dd	Schleier
16dd]	.
8g	in
=14	=14
8dd	Stü-
8dd	-cke
8dd}	bricht,
{8g	bann
=15	=15
8dd	kauf'
8dd	ich
8ee	ei-
8dd	-nen
=16	=16
4dd	neu-
4dd}	-en.
==	==
!!!AGN: Kinder - Lied, Reigen, Tanz - Spiel
!!!ONB: ESAC (Essen Associative Code) Database: KINDER
!!!AMT: simple duple
!!!AIN: vox
!!!EED: Helmut Schaffrath
!!!EEV: 1.0
!!Aus Oberdiebach am Rhein 1896.
!!!GTL: Zweites Buch. Kinderspiel: 2. Reigen und Tanzspiele. / C. Ringelreihen mit Aufloesen des Kreises und Haschenspiel.
!!@@COMMENT:"Die Kinder bilden einen Kreis. Eine geht um denſelben und ſingt. Die Gerufene (Anna rc. ) folgt ihr nach und beide faſſen ſich an die Hand. Offenbar fehlt 
!!hier noch etwas ʒur Ausführung."
!!@@END:
!!!URL-scan: https://archive.org/details/DeutschesKinderliedUndKinderspiel/page/467/mode/1up
!!!ENC: Anna Maria Matuszewska
!!!EEV: 2024/03/09
*-	*-
